X:1
T:Faridabad, 87.87 D
T:Faridabad, 87.87 D
T:John Robson Sweney, 1881
T:Public Domain Courtesy of the Cyber Hymnal™
C:John Robson Sweney, 1881
Z:Public Domain
Z:Courtesy of the Cyber Hymnal™
%%score ( 1 2 ) ( 3 4 )
L:1/8
Q:1/4=103
M:4/4
K:Bb
V:1 treble 
V:2 treble 
V:3 bass 
V:4 bass 
V:1
 [DB]2 [EG]2 [DF]>D [DF]>[DB] | [Fd]4 [FB]4 | [FA]2 [EG]2 F2 [DB]2 | (d>c) (c>=B) c4 | %4
 [DB]2 [EG]2 [DF]>D [DF]>[DB] | [Fd]4 [FB]4 | [FA]2 [Fc]2 [=Ec]>[GB] [FA]>[EG] | F6 z2 | %8
 [Fe]2 [Fe]2 [Fe]>F [=EG]>[_EA] | [DB]4 [Fd]4 | [^Fd]2 [Fd]2 [Fd]>[Ac] [GB]>[FA] | G4 [EA]4 | %12
 [DB]2 [EG]2 [DF]>D [DF]>[DB] | [Fd]4 [FB]4 | [Gc]2 [EG]2 [Fd]>[Fc] [FB]>[EA] | [DB]6 |] %16
V:2
 x11/2 D/ x2 | x8 | x4 F2 x2 | F2 F2 (F2 E2) | x11/2 D/ x2 | x8 | x8 | F6 x2 | x11/2 F/ x2 | x8 | %10
 x8 | G2 E2 x4 | x11/2 D/ x2 | x8 | x8 | x6 |] %16
V:3
 [B,,F,]2 [B,,B,]2 [B,,B,]>[B,,F,] [B,,B,]>[B,,B,] | [B,,B,]4 [B,,D]4 | %2
 [E,E]2 [E,B,]2 [D,B,]2 [B,,B,]2 | (B,>A,) (A,>^G,) [F,A,]4 | %4
 B,2 [B,,B,]2 [B,,B,]>[B,,F,] [B,,B,]>[B,,B,] | [B,,B,]4 [B,,D]4 | %6
 [C,C]2 [C,A,]2 [C,G,]>[C,C] [C,C]>[C,B,] | [F,A,]6 z2 | %8
 [F,A,]2 [F,A,]2 [F,A,]>[F,A,] [F,B,]>[F,C] | B,4 [B,,B,]4 | %10
 [D,A,]2 [D,A,]2 [D,A,]>[D,D] [D,D]>[D,C] | ([G,B,]4 [F,C]4) | %12
 [B,,B,]2 [B,,B,]2 [B,,B,]>[B,,F,] [B,,B,]>[B,,B,] | [B,,B,]4 [B,,D]4 | %14
 [E,E]2 [E,B,]2 [F,B,]>[F,E] [F,D]>[F,C] | [B,,B,]6 |] %16
V:4
 x8 | x8 | x8 | F,2 F,2 x4 | B,2 x6 | x8 | x8 | x8 | x8 | B,4 x4 | x8 | x8 | x8 | x8 | x8 | x6 |] %16

